assets/img/img-pages/icon-property/weakness1.svg

<svg width="64" height="64" viewBox="0 0 64 64" fill="none" xmlns="http://www.w3.org/2000/svg">
<g clip-path="url(#clip0)">
<path d="M42.337 25.9403L42.337 25.9399L42.3359 25.9325C42.3353 25.9286 42.3339 25.9207 42.333 25.9124L42.332 25.9037L42.3326 25.895C42.605 21.6315 42.5652 17.3484 42.2104 13.0894L42.1929 12.8805L42.3663 12.9985C42.9453 13.3927 43.5823 13.7003 44.2564 13.906L44.3116 13.9228L44.3246 13.979C45.6078 19.4987 46.3399 25.1633 46.4978 30.8255C46.5124 31.3517 46.3165 31.8497 45.9467 32.2265C45.5797 32.6004 45.0819 32.8059 44.5601 32.8072L44.56 32.8072L44.5577 32.8073L44.5567 32.8073H44.5556L44.554 32.8072L44.5539 32.8073L44.553 32.8072M42.337 25.9403L44.5533 32.8072C44.5534 32.8072 44.5534 32.8072 44.5533 32.8072C44.5532 32.8072 44.5532 32.8072 44.553 32.8072M42.337 25.9403C42.4856 27.5924 42.5843 29.2704 42.6307 30.9273C42.6598 31.9708 43.5082 32.7955 44.55 32.8072M42.337 25.9403L44.55 32.8072M44.553 32.8072L44.5522 32.8072L44.5511 32.8072L44.55 32.8072M44.553 32.8072L44.5528 32.8072L44.555 32.7072L44.55 32.8072M44.6294 35.1631C44.6314 35.1744 44.6314 35.1862 44.6299 35.198C44.6283 35.1806 44.6244 35.1639 44.6189 35.15C44.6227 35.1543 44.6263 35.1586 44.6294 35.1631ZM44.4821 35.132C44.4794 35.1357 44.4767 35.1399 44.474 35.1446C44.4756 35.1408 44.4775 35.1372 44.4796 35.1339C44.4804 35.1333 44.4812 35.1327 44.4821 35.132ZM47.5879 33.8377C46.7837 34.657 45.6913 35.107 44.5441 35.1072C42.9588 35.0922 41.5686 34.2192 40.8552 32.9248L40.7917 32.8096L40.6977 32.9016C40.5713 33.0253 40.4377 33.1426 40.2952 33.2512C39.5474 33.8211 38.658 34.1198 37.738 34.1198C37.68 34.1198 37.6221 34.1168 37.561 34.1135C37.5479 34.1128 37.5345 34.1121 37.521 34.1115L37.2994 34.1002L37.4378 34.2737L40.0748 37.5781C41.4138 39.2564 41.9457 41.4273 41.5339 43.5344L37.7348 62.9705C37.6293 63.5103 37.1563 63.8999 36.6063 63.8999H29.1328C28.7931 63.8999 28.4706 63.7497 28.2521 63.4895C28.0336 63.2293 27.9414 62.8858 28.0002 62.551L30.1096 50.5419L30.1762 50.1632L29.9336 50.4615L19.3498 63.4756C19.1542 63.7161 18.8698 63.8675 18.5609 63.8953C18.5263 63.8983 18.4918 63.8999 18.4576 63.8999C18.1844 63.8999 17.9189 63.8026 17.7097 63.6235L12.8077 59.4254C12.3393 59.0243 12.2706 58.3251 12.6521 57.8407L22.4108 45.4453L22.4441 45.4029L22.427 45.3518L18.8522 34.6534L18.842 34.6227L18.8158 34.6039L18.2753 34.2152C18.2752 34.2151 18.2751 34.2151 18.275 34.215C15.7706 32.376 14.295 29.7816 13.9956 26.7017C13.7272 23.9405 14.4531 20.985 16.0432 18.3809L15.9578 18.3288L16.0432 18.3809C18.0908 15.0274 20.6549 12.0481 23.6645 9.52587L23.6645 9.52585C24.1512 9.11786 24.8766 9.18179 25.2845 9.66857L25.2845 9.66858C25.6925 10.1554 25.6285 10.8806 25.1418 11.2885L25.206 11.3652L25.1418 11.2885C22.6446 13.3813 20.4758 15.8109 18.6799 18.5219L18.6226 18.6084L18.7111 18.6625L29.7315 25.3917L29.8119 25.4408L29.8657 25.3635C31.0229 23.6998 32.4098 22.2243 34.0036 20.9633L34.0412 20.9335L34.0416 20.8856C34.0499 19.7162 34.0332 18.5476 33.9895 17.3827C33.9657 16.7481 34.4609 16.2142 35.0955 16.1904L35.0957 16.1904C35.7277 16.1656 36.2639 16.6616 36.2878 17.2964C36.4423 21.4114 36.2798 25.5718 35.8053 29.6619C35.6849 30.6996 36.3992 31.6374 37.4314 31.7962C37.9565 31.8771 38.479 31.744 38.9014 31.4219C39.3213 31.1019 39.5865 30.6371 39.6473 30.1141C40.4392 23.2938 40.3989 16.3804 39.5274 9.56628C39.4709 9.12453 39.2598 8.69776 38.9389 8.38916C37.723 7.16617 36.0337 6.46297 34.3033 6.45903C33.6681 6.45765 33.1545 5.94155 33.156 5.30655C33.1574 4.6722 33.6721 4.15909 34.3059 4.15909H34.3059H34.306H34.306H34.306H34.306H34.306H34.306H34.3061H34.3061H34.3061H34.3061H34.3061H34.3062H34.3062H34.3062H34.3062H34.3062H34.3062H34.3063H34.3063H34.3063H34.3063H34.3063H34.3063H34.3064H34.3064H34.3064H34.3064H34.3064H34.3064H34.3065H34.3065H34.3065H34.3065H34.3065H34.3065H34.3066H34.3066H34.3066H34.3066H34.3066H34.3066H34.3067H34.3067H34.3067H34.3067H34.3067H34.3067H34.3068H34.3068H34.3068H34.3068H34.3068H34.3068H34.3069H34.3069H34.3069H34.3069H34.3069H34.3069H34.307H34.307H34.307H34.307H34.307H34.307H34.3071H34.3071H34.3071H34.3071H34.3071H34.3071H34.3072H34.3072H34.3072H34.3072H34.3072H34.3072H34.3073H34.3073H34.3073H34.3073H34.3073H34.3073H34.3074H34.3074H34.3074H34.3074H34.3074H34.3074H34.3075H34.3075H34.3075H34.3075H34.3075H34.3075H34.3076H34.3076H34.3076H34.3076H34.3076H34.3076H34.3077H34.3077H34.3077H34.3077H34.3077H34.3077H34.3078H34.3078H34.3078H34.3078H34.3078H34.3078H34.3079H34.3079H34.3079H34.3079H34.3079H34.3079H34.308H34.308H34.308H34.308H34.308H34.308H34.3081H34.3081H34.3081H34.3081H34.3081H34.3081H34.3082H34.3082H34.3082H34.3082H34.3082H34.3082H34.3083H34.3083H34.3083H34.3083H34.3083H34.3083H34.3084H34.3084H34.3084H34.3084H34.3084H34.3084H34.3085H34.3085H34.3085H34.3085H34.3085H34.3085H34.3086C36.1149 4.16317 37.888 4.73467 39.3596 5.75705L39.4805 5.841L39.5141 5.69775C40.1019 3.18981 42.0689 1.10558 44.7453 0.502976L45.7718 0.27198L45.7498 0.17442L45.7718 0.271975C47.579 -0.135182 49.4364 0.186233 51.0025 1.17666C52.5683 2.16709 53.6545 3.70768 54.0614 5.51527C54.4684 7.32285 54.1471 9.18018 53.1564 10.7462C52.166 12.3122 50.6255 13.3983 48.8179 13.8052L48.8399 13.9028L48.8179 13.8052L47.7915 14.0363C47.4762 14.1073 47.1604 14.1529 46.8458 14.1795L46.7317 14.1891L46.7565 14.3008C47.9559 19.7034 48.6426 25.2334 48.7967 30.7614C48.8289 31.9183 48.3998 33.0105 47.5879 33.8377ZM18.2318 61.0426L18.3098 61.1093L18.3745 61.0297L28.8359 48.1661C29.6499 47.1653 29.9467 45.8214 29.6301 44.5709L28.9619 41.9301L28.9529 41.8948L28.9233 41.8735L22.2847 37.0991L22.0333 36.9183L22.1315 37.2119L24.8215 45.2625C24.9442 45.6297 24.874 46.0339 24.6344 46.3382L15.2011 58.3209L15.1418 58.3963L15.2147 58.4588L18.2318 61.0426ZM35.5771 61.6H35.6595L35.6753 61.5192L39.2768 43.0933C39.559 41.6498 39.1945 40.1624 38.2771 39.0126L29.4047 27.8941L29.3937 27.8803L29.3786 27.8711L17.5466 20.6464L17.4521 20.5887L17.4043 20.6886C15.6107 24.4397 15.5629 29.3705 19.6262 32.354L19.627 32.3545L33.2575 42.1573C33.6158 42.4152 33.7951 42.8552 33.7187 43.29L30.5231 61.4827L30.5025 61.6H30.6216H35.5771ZM31.6197 26.87L31.5784 26.931L31.6243 26.9885L33.3728 29.1796L33.5233 29.3682L33.5503 29.1284C33.7295 27.5355 33.8602 25.9322 33.9418 24.3256L33.9551 24.0641L33.7709 24.2502C32.9756 25.0536 32.2569 25.9287 31.6197 26.87ZM44.6499 32.729C44.6498 32.7313 44.6495 32.7335 44.6492 32.7356C44.6479 32.7387 44.6463 32.742 44.6445 32.7454C44.6465 32.7401 44.6483 32.7346 44.6499 32.729ZM44.4575 32.7203C44.4575 32.7179 44.4577 32.7153 44.4579 32.7126C44.4588 32.7192 44.46 32.7259 44.4614 32.7323C44.4598 32.7281 44.4585 32.7241 44.4575 32.7203ZM45.2504 2.7468L45.2723 2.84436L45.2504 2.7468C42.7565 3.30817 41.1845 5.79376 41.7458 8.28771C42.3072 10.7817 44.7928 12.354 47.2867 11.7925L48.3131 11.5614C49.5209 11.2894 50.551 10.5631 51.213 9.51668C51.8747 8.47028 52.0896 7.22831 51.8177 6.02047L51.7202 6.04242L51.8177 6.02046C51.5458 4.81248 50.8194 3.78251 49.7732 3.1206L49.7197 3.20511L49.7732 3.12059C49.0227 2.64591 48.1714 2.401 47.3039 2.401C46.9622 2.401 46.6181 2.43894 46.2768 2.51581L45.2504 2.7468Z" fill="#14213D" stroke="white" stroke-width="0.2"/>
<path d="M13.5526 12.9513L13.5527 12.9514C13.6735 12.9918 13.796 13.0108 13.9165 13.0108C14.3981 13.0108 14.8466 12.7059 15.0072 12.2242L13.5526 12.9513ZM13.5526 12.9513C12.9502 12.7506 12.6245 12.0993 12.8254 11.4967L12.7305 11.4651L12.8254 11.4967C13.2522 10.2165 14.2718 9.19696 15.5521 8.77017L15.5521 8.77017C16.1497 8.57084 16.6251 8.09556 16.8243 7.49795L16.8243 7.49795M13.5526 12.9513L16.8243 7.49795M16.8243 7.49795C17.2511 6.21734 18.2708 5.1978 19.5512 4.77114C20.1538 4.57035 20.8049 4.89602 21.0057 5.49861C21.2065 6.10107 20.8808 6.75231 20.2782 6.95309C19.6806 7.15217 19.2053 7.62761 19.0061 8.22519C18.5794 9.50555 17.5598 10.5251 16.2793 10.952C15.6819 11.1512 15.2064 11.6265 15.0072 12.2242L16.8243 7.49795Z" fill="#14213D" stroke="white" stroke-width="0.2"/>
<path d="M12.5528 48.2653L12.5528 48.2653C11.2725 48.6921 10.2529 49.7116 9.82613 50.992L9.82612 50.992C9.62523 51.5945 9.95088 52.2457 10.5535 52.4466L10.5535 52.4466C10.6743 52.4869 10.7968 52.506 10.9174 52.506C11.399 52.506 11.8476 52.2011 12.0081 51.7193C12.0081 51.7193 12.0081 51.7193 12.0081 51.7193L12.103 51.7509L12.5528 48.2653ZM12.5528 48.2653C13.1504 48.066 13.6258 47.5906 13.825 46.993C14.2518 45.7126 15.2715 44.6929 16.5519 44.2662M12.5528 48.2653L16.0069 47.7203C16.2061 47.1226 16.6815 46.6473 17.2791 46.4481M17.2791 46.4481L17.3107 46.543L17.2791 46.4481C17.2791 46.4481 17.2791 46.4481 17.2791 46.4481ZM17.2791 46.4481C17.8817 46.2472 18.2072 45.596 18.0065 44.9935C17.8057 44.3911 17.1544 44.0656 16.5519 44.2662M16.5519 44.2662L16.5202 44.1713L16.5518 44.2662C16.5518 44.2662 16.5518 44.2662 16.5519 44.2662Z" fill="#14213D" stroke="white" stroke-width="0.2"/>
<path d="M30.1419 7.1543C30.1419 7.78943 29.6271 8.3043 28.9919 8.3043C28.3568 8.3043 27.8419 7.78943 27.8419 7.1543C27.8419 6.51917 28.3568 6.0043 28.9919 6.0043C29.6271 6.0043 30.1419 6.51917 30.1419 7.1543Z" fill="#14213D" stroke="white" stroke-width="0.2"/>
</g>
<defs>
<clipPath id="clip0">
<rect width="64" height="64" fill="white"/>
</clipPath>
</defs>
</svg>

<svg width="64" height="64" fill="none" xmlns="http://www.w3.org/2000/svg"><g clip-path="url(#a)" fill="#14213D" stroke="#fff" stroke-width=".2"><path d="m42.337 25.94-.001-.008-.003-.02-.001-.008v-.009a87.275 87.275 0 0 0-.122-12.806l-.017-.209.173.118a6.981 6.981 0 0 0 1.89.908l.056.017.013.056a85.003 85.003 0 0 1 2.173 16.847 1.91 1.91 0 0 1-.551 1.4c-.367.374-.865.58-1.387.581h-.007m-2.216-6.867 2.216 6.867m-2.216-6.867c.149 1.652.247 3.33.294 4.987a1.935 1.935 0 0 0 1.919 1.88m-2.213-6.867 2.213 6.867m.003 0h-.003m.003 0 .002-.1-.005.1m.08 2.356a.116.116 0 0 1 0 .035.177.177 0 0 0-.011-.048.14.14 0 0 1 .01.013Zm-.148-.031a.138.138 0 0 0-.008.013.072.072 0 0 1 .006-.011l.002-.002Zm3.106-1.294a4.25 4.25 0 0 1-3.044 1.27 4.252 4.252 0 0 1-3.689-2.183l-.063-.115-.094.092a4.198 4.198 0 0 1-2.96 1.218 3.28 3.28 0 0 1-.217-.009l-.222-.01.139.173 2.637 3.304a7.292 7.292 0 0 1 1.459 5.956l-3.8 19.437a1.15 1.15 0 0 1-1.128.929h-7.473A1.15 1.15 0 0 1 28 62.55l2.11-12.01.066-.378-.242.299L19.35 63.475a1.15 1.15 0 0 1-1.64.148l-4.902-4.199a1.15 1.15 0 0 1-.156-1.584l9.759-12.396.033-.042-.017-.051-3.575-10.699-.01-.03-.026-.02-.54-.388h-.001c-2.504-1.839-3.98-4.433-4.28-7.513-.268-2.762.458-5.717 2.048-8.321l-.085-.052.085.052a36.025 36.025 0 0 1 7.622-8.855 1.15 1.15 0 1 1 1.477 1.763l.064.076-.064-.076a33.72 33.72 0 0 0-6.462 7.233l-.057.086.088.055 11.02 6.729.08.049.055-.078a20.587 20.587 0 0 1 4.138-4.4l.037-.03v-.047a78.59 78.59 0 0 0-.051-3.503 1.15 1.15 0 0 1 2.298-.086 81.209 81.209 0 0 1-.483 12.365 1.927 1.927 0 0 0 1.626 2.134 1.922 1.922 0 0 0 1.47-.374c.42-.32.685-.785.746-1.308a84.923 84.923 0 0 0-.12-20.548 2.006 2.006 0 0 0-.588-1.177 6.6 6.6 0 0 0-4.636-1.93 1.15 1.15 0 0 1 .003-2.3h.002a8.93 8.93 0 0 1 5.052 1.598l.12.084.034-.143A6.944 6.944 0 0 1 44.745.503l1.027-.231-.022-.098.022.098a6.889 6.889 0 0 1 5.23.905 6.89 6.89 0 0 1 3.06 4.338 6.889 6.889 0 0 1-.906 5.231 6.89 6.89 0 0 1-4.338 3.06l.022.097-.022-.098-1.026.231a6.971 6.971 0 0 1-.946.144l-.114.01.025.11a87.304 87.304 0 0 1 2.04 16.461 4.188 4.188 0 0 1-1.21 3.077ZM18.232 61.043l.078.066.065-.08 10.46-12.863a4.12 4.12 0 0 0 .795-3.595l-.668-2.64-.01-.036-.029-.022-6.638-4.774-.252-.18.098.293 2.69 8.05a1.15 1.15 0 0 1-.187 1.076l-9.433 11.983-.06.075.074.063 3.017 2.584Zm17.345.557h.083l.015-.08 3.602-18.427a4.996 4.996 0 0 0-1-4.08l-8.872-11.119-.011-.014-.015-.009-11.832-7.225-.095-.057-.048.1c-1.793 3.75-1.841 8.681 2.222 11.665h.001l13.63 9.803c.359.258.538.698.462 1.133l-3.196 18.193-.02.117h5.074ZM31.62 26.87l-.042.061.046.057 1.749 2.192.15.188.027-.24c.18-1.593.31-3.196.392-4.802l.013-.262-.184.186a18.305 18.305 0 0 0-2.151 2.62Zm13.03 5.859v.007a.123.123 0 0 1-.005.01.21.21 0 0 0 .005-.017Zm-.192-.009v-.007l.003.02a.119.119 0 0 1-.003-.013Zm.792-29.973.022.097-.022-.097a4.641 4.641 0 0 0-3.504 5.54 4.641 4.641 0 0 0 5.54 3.505l1.027-.23a4.607 4.607 0 0 0 2.9-2.045 4.607 4.607 0 0 0 .605-3.497l-.098.022.098-.022a4.607 4.607 0 0 0-2.045-2.9l-.053.085.053-.084a4.606 4.606 0 0 0-3.496-.605l-1.027.23ZM13.553 12.951a1.15 1.15 0 0 0 1.454-.727l-1.454.727Zm0 0a1.15 1.15 0 0 1-.728-1.454l-.095-.032.095.032a4.333 4.333 0 0 1 2.727-2.727 2.021 2.021 0 0 0 1.272-1.272m-3.271 5.453 3.271-5.453m0 0a4.332 4.332 0 0 1 2.727-2.727 1.15 1.15 0 1 1 .727 2.182 2.02 2.02 0 0 0-1.272 1.272 4.332 4.332 0 0 1-2.727 2.727 2.02 2.02 0 0 0-1.272 1.272l1.817-4.726Z"/><path d="M12.553 48.265a4.332 4.332 0 0 0-2.727 2.727 1.15 1.15 0 0 0 .727 1.455 1.148 1.148 0 0 0 1.455-.728l.095.032.45-3.486Zm0 0a2.021 2.021 0 0 0 1.272-1.272 4.333 4.333 0 0 1 2.727-2.727m-4 4 3.455-.546a2.02 2.02 0 0 1 1.272-1.272m0 0 .032.095-.032-.095Zm0 0a1.15 1.15 0 0 0-.727-2.182m0 0-.032-.095.032.095ZM30.142 7.154a1.15 1.15 0 1 1-2.3 0 1.15 1.15 0 0 1 2.3 0Z"/></g><defs><clipPath id="a"><path fill="#fff" d="M0 0h64v64H0z"/></clipPath></defs></svg>
